icon_installer/data/icons/scalable/actions/show-football-american-symbolic.svg

<?xml version="1.0" encoding="UTF-8"?>
<svg height="16px" viewBox="0 0 16 16" width="16px" xmlns="http://www.w3.org/2000/svg">
    <path d="m 15 0 c -5.132812 0 -8.945312 1.03125 -11.457031 3.542969 s -3.542969 6.324219 -3.542969 11.457031 c 0 0.550781 0.449219 1 1 1 c 5.132812 0 8.945312 -1.03125 11.457031 -3.542969 s 3.542969 -6.324219 3.542969 -11.457031 c 0 -0.550781 -0.449219 -1 -1 -1 z m -1.136719 2.136719 c -0.058593 1.433593 -0.199219 2.726562 -0.433593 3.878906 l -3.445313 -3.445313 c 1.152344 -0.234374 2.445313 -0.375 3.878906 -0.433593 z m -5.191406 0.863281 l 4.328125 4.253906 c -0.292969 1.746094 -1.214844 3.046875 -1.957031 3.789063 c -0.742188 0.742187 -2.042969 1.542969 -3.804688 1.957031 l -4.238281 -4.179688 c 0.398438 -1.578124 1.214844 -3.121093 1.957031 -3.863281 c 0.742188 -0.742187 2.296875 -1.519531 3.714844 -1.957031 z m -6.101563 6.984375 l 3.445313 3.445313 c -1.152344 0.234374 -2.445313 0.375 -3.878906 0.433593 c 0.058593 -1.433593 0.199219 -2.726562 0.433593 -3.878906 z m 0 0" fill="#222222"/>
</svg>

<svg xmlns="http://www.w3.org/2000/svg" width="16" height="16"><path fill="#222" d="M15 0C9.867 0 6.055 1.031 3.543 3.543S0 9.867 0 15c0 .55.45 1 1 1 5.133 0 8.945-1.031 11.457-3.543S16 6.133 16 1c0-.55-.45-1-1-1zm-1.137 2.137c-.058 1.433-.199 2.726-.433 3.879L9.984 2.57c1.153-.234 2.446-.375 3.88-.433zM8.672 3 13 7.254C12.707 9 11.785 10.3 11.043 11.043S9 12.586 7.238 13L3 8.82c.398-1.578 1.215-3.12 1.957-3.863.742-.742 2.297-1.52 3.715-1.957zM2.57 9.984l3.446 3.446c-1.153.234-2.446.375-3.88.433.06-1.433.2-2.726.434-3.879zm0 0"/></svg>
